X:20
T:Fredrik's Long Johns
R:reel
C:Henrik Norbeck
H:January 2016
M:C|
L:1/8
K:G
BedB ~A3c | BG~G2 dGBG | BedB A2ef | gedc BG~G2 :|
efge f2df | ~g3d edgd | efge fdef | g2gd BG~G2 |
efge f2fa | ~g3f efga | b2bg ~a3f | gedc BG~G2 ||

